priv/static/svgs/icons_new/sport-call-of-duty.svg

<svg width="32" height="32" viewBox="0 0 32 32" fill="none" xmlns="http://www.w3.org/2000/svg">
<path d="M17.1134 22.1081C17.3486 22.2528 17.6565 22.1795 17.8012 21.9443C17.9459 21.7091 17.8726 21.4011 17.6374 21.2564L17.1134 22.1081ZM16.4118 21.0336L16.7069 20.63L16.4118 21.0336ZM15.5941 21.0336L15.8885 21.4378L15.8887 21.4376L15.5941 21.0336ZM14.3648 21.2574C14.1298 21.4024 14.0569 21.7105 14.202 21.9455C14.347 22.1805 14.6551 22.2534 14.8901 22.1083L14.3648 21.2574ZM26.9996 13.7467L27.4996 13.7517V13.7516L26.9996 13.7467ZM5.00036 13.7467L4.50039 13.7516L4.50039 13.7517L5.00036 13.7467ZM20.7784 16.7393L20.8164 16.2408L20.8163 16.2408L20.7784 16.7393ZM18.9068 24.4019C18.9082 24.1257 18.6855 23.9008 18.4094 23.8993C18.1332 23.8979 17.9082 24.1207 17.9068 24.3968L18.9068 24.4019ZM17.897 26.3285C17.8956 26.6046 18.1183 26.8296 18.3944 26.831C18.6706 26.8324 18.8956 26.6097 18.897 26.3336L17.897 26.3285ZM11.221 16.7393L11.1831 16.2408L11.1831 16.2408L11.221 16.7393ZM7.98317 14.532C7.95309 14.2575 7.70617 14.0593 7.43167 14.0894C7.15718 14.1195 6.95904 14.3664 6.98912 14.6409L7.98317 14.532ZM9.50897 23.0703L9.50843 23.5703H9.50858L9.50897 23.0703ZM11.1832 24.3934L10.6976 24.5125L10.6976 24.5127L11.1832 24.3934ZM11.5288 25.7997L11.0432 25.919L11.1072 26.1793L11.3595 26.2701L11.5288 25.7997ZM20.4699 25.7997L20.6392 26.2701L20.8914 26.1793L20.9554 25.919L20.4699 25.7997ZM20.8155 24.3934L21.301 24.5127L21.3011 24.5125L20.8155 24.3934ZM22.4897 23.0703L22.4891 22.5703H22.4889L22.4897 23.0703ZM25.0095 14.6409C25.0396 14.3664 24.8415 14.1195 24.567 14.0894C24.2925 14.0593 24.0456 14.2575 24.0155 14.532L25.0095 14.6409ZM14.0923 24.3968C14.0909 24.1207 13.8659 23.8979 13.5897 23.8993C13.3136 23.9008 13.0909 24.1257 13.0923 24.4019L14.0923 24.3968ZM13.1021 26.3336C13.1035 26.6097 13.3285 26.8324 13.6047 26.831C13.8808 26.8296 14.1035 26.6046 14.1021 26.3285L13.1021 26.3336ZM16.5 24.3995C16.5001 24.1234 16.2763 23.8994 16.0002 23.8993C15.724 23.8993 15.5001 24.123 15.5 24.3992L16.5 24.3995ZM17.6374 21.2564C17.3337 21.0695 17.0233 20.8614 16.7069 20.63L16.1167 21.4372C16.4539 21.6839 16.7864 21.9069 17.1134 22.1081L17.6374 21.2564ZM16.7069 20.63C16.2858 20.3221 15.7205 20.3225 15.2994 20.6297L15.8887 21.4376C15.9591 21.3862 16.0475 21.3867 16.1167 21.4372L16.7069 20.63ZM15.2996 20.6295C14.9823 20.8607 14.6697 21.0692 14.3648 21.2574L14.8901 22.1083C15.2159 21.9072 15.5497 21.6845 15.8885 21.4378L15.2996 20.6295ZM26.1086 17.881C27.0276 16.5905 27.4858 15.1384 27.4996 13.7517L26.4997 13.7417C26.488 14.9162 26.0989 16.1707 25.294 17.301L26.1086 17.881ZM27.4996 13.7516C27.5502 8.62974 22.735 5 16 5V6C22.4599 6 26.5423 9.42073 26.4997 13.7418L27.4996 13.7516ZM16 5C9.26497 5 4.44983 8.62974 4.50039 13.7516L5.50034 13.7418C5.45769 9.42073 9.54006 6 16 6V5ZM4.50039 13.7517C4.51415 15.1384 4.97243 16.5905 5.89139 17.881L6.70596 17.301C5.9011 16.1707 5.512 14.9162 5.50034 13.7417L4.50039 13.7517ZM21.4999 20.2272C20.7077 20.2272 19.9871 19.9232 19.4669 19.4908C18.9343 19.0482 18.6733 18.5276 18.6733 18.1315H17.6733C17.6733 18.9248 18.1565 19.702 18.8277 20.2599C19.5112 20.828 20.4539 21.2272 21.4999 21.2272V20.2272ZM18.6733 18.1315C18.6733 17.8328 18.7208 17.6538 18.7779 17.5453C18.8284 17.4492 18.9006 17.38 19.0247 17.325C19.1619 17.2642 19.3642 17.2211 19.6611 17.2062C19.9553 17.1913 20.3112 17.2053 20.7406 17.2379L20.8163 16.2408C20.3741 16.2072 19.9686 16.1894 19.6108 16.2074C19.2559 16.2253 18.9158 16.2795 18.6197 16.4107C18.3104 16.5477 18.0582 16.765 17.8926 17.0801C17.7336 17.3827 17.6733 17.7396 17.6733 18.1315H18.6733ZM20.7405 17.2379C22.3618 17.3612 22.999 18.2258 23.06 18.8819C23.0918 19.2235 22.9814 19.5491 22.7426 19.7918C22.5052 20.0332 22.105 20.2272 21.4999 20.2272V21.2272C22.3258 21.2272 22.9993 20.9568 23.4555 20.4931C23.9103 20.0307 24.1135 19.4106 24.0557 18.7893C23.9376 17.5197 22.7831 16.3904 20.8164 16.2408L20.7405 17.2379ZM17.9068 24.3968L17.897 26.3285L18.897 26.3336L18.9068 24.4019L17.9068 24.3968ZM11.2589 17.2379C11.6883 17.2053 12.0441 17.1913 12.3383 17.2062C12.6352 17.2211 12.8375 17.2642 12.9747 17.325C13.0988 17.38 13.171 17.4492 13.2216 17.5453C13.2786 17.6538 13.3261 17.8328 13.3261 18.1315H14.3261C14.3261 17.7396 14.2658 17.3827 14.1068 17.0801C13.9412 16.765 13.689 16.5477 13.3797 16.4107C13.0836 16.2795 12.7435 16.2253 12.3886 16.2074C12.0309 16.1894 11.6253 16.2072 11.1831 16.2408L11.2589 17.2379ZM13.3261 18.1315C13.3261 18.5279 13.0651 19.0485 12.5325 19.491C12.0124 19.9233 11.2918 20.2272 10.4995 20.2272V21.2272C11.5454 21.2272 12.4881 20.8282 13.1717 20.2601C13.8429 19.7023 14.3261 18.9251 14.3261 18.1315H13.3261ZM10.4995 20.2272C9.89446 20.2272 9.49426 20.0332 9.25679 19.7918C9.01801 19.5491 8.90764 19.2235 8.93941 18.8819C9.00045 18.2258 9.63762 17.3612 11.2589 17.2379L11.1831 16.2408C9.21628 16.3904 8.06183 17.5197 7.94371 18.7893C7.88591 19.4106 8.08907 20.0307 8.54393 20.4931C9.00011 20.9568 9.67366 21.2272 10.4995 21.2272V20.2272ZM6.98912 14.6409C7.06603 15.3426 6.97798 15.7833 6.8359 16.1031C6.68915 16.4334 6.46739 16.6797 6.175 16.9899C5.89201 17.29 5.5427 17.6502 5.27802 18.159C5.00814 18.6778 4.83863 19.3222 4.83863 20.1998H5.83863C5.83863 19.459 5.97971 18.977 6.16517 18.6205C6.35582 18.254 6.60661 17.9898 6.90264 17.6758C7.18927 17.3718 7.52546 17.0139 7.74976 16.5091C7.97873 15.9938 8.07483 15.3683 7.98317 14.532L6.98912 14.6409ZM4.83863 20.1998C4.83863 20.919 5.06013 21.7859 5.80599 22.4671C6.54606 23.1431 7.72849 23.5683 9.50843 23.5703L9.50951 22.5703C7.8745 22.5685 6.97176 22.1776 6.4804 21.7288C5.99483 21.2853 5.83863 20.7187 5.83863 20.1998H4.83863ZM9.50858 23.5703C10.0667 23.5707 10.5607 23.9545 10.6976 24.5125L11.6688 24.2743C11.4231 23.2726 10.531 22.5711 9.50936 22.5703L9.50858 23.5703ZM10.6976 24.5127L11.0432 25.919L12.0143 25.6803L11.6687 24.2741L10.6976 24.5127ZM11.3595 26.2701C13.0118 26.8648 14.5903 27.0108 16.0034 26.9994L15.9953 25.9994C14.658 26.0102 13.2053 25.8716 11.6981 25.3292L11.3595 26.2701ZM15.9953 26.9994C17.409 27.0108 18.9869 26.8648 20.6392 26.2701L20.3006 25.3292C18.7933 25.8716 17.3412 26.0102 16.0033 25.9994L15.9953 26.9994ZM20.9554 25.919L21.301 24.5127L20.3299 24.2741L19.9843 25.6803L20.9554 25.919ZM21.3011 24.5125C21.4379 23.9549 21.9317 23.5711 22.4904 23.5703L22.4889 22.5703C21.4678 22.5719 20.5756 23.2723 20.3299 24.2743L21.3011 24.5125ZM22.4902 23.5703C24.2701 23.5683 25.4526 23.1431 26.1926 22.4671C26.9385 21.7859 27.16 20.919 27.16 20.1998H26.16C26.16 20.7187 26.0038 21.2853 25.5182 21.7288C25.0269 22.1776 24.1241 22.5685 22.4891 22.5703L22.4902 23.5703ZM27.16 20.1998C27.16 19.3222 26.9905 18.6778 26.7206 18.159C26.4559 17.6502 26.1066 17.29 25.8236 16.9899C25.5313 16.6797 25.3095 16.4334 25.1627 16.1031C25.0207 15.7833 24.9326 15.3426 25.0095 14.6409L24.0155 14.532C23.9238 15.3683 24.0199 15.9938 24.2489 16.5091C24.4732 17.0139 24.8094 17.3718 25.096 17.6758C25.392 17.9898 25.6428 18.254 25.8335 18.6205C26.0189 18.977 26.16 19.459 26.16 20.1998H27.16ZM13.0923 24.4019L13.1021 26.3336L14.1021 26.3285L14.0923 24.3968L13.0923 24.4019ZM15.5 24.3992L15.4993 26.4992L16.4993 26.4996L16.5 24.3995L15.5 24.3992Z" fill="black"/>
</svg>

<svg width="32" height="32" viewBox="0 0 32 32" fill="none" xmlns="http://www.w3.org/2000/svg">
  <symbol id="item" viewBox="0 0 32 32"  fill="none">
    <path d="M17.113 22.108a.5.5 0 1 0 .524-.852l-.524.852Zm-.701-1.074.295-.404-.295.404Zm-.818 0 .295.404-.295-.404Zm-1.23.223a.5.5 0 1 0 .526.851l-.525-.85ZM27 13.747l.5.005-.5-.005Zm-22 0-.5.005.5-.005Zm15.778 2.992.038-.498-.038.498Zm-1.871 7.663a.5.5 0 0 0-1-.005l1 .005Zm-1.01 1.926a.5.5 0 0 0 1 .006l-1-.006Zm-6.676-9.589-.038-.498.038.498Zm-3.238-2.207a.5.5 0 1 0-.994.109l.994-.109ZM9.51 23.07v.5-.5Zm1.674 1.323-.485.12.485-.12Zm.346 1.407-.486.119.064.26.253.091.169-.47Zm8.94 0 .17.47.252-.09.064-.261-.485-.12Zm.346-1.407.486.12-.485-.12Zm1.675-1.323v-.5h-.001v.5Zm2.52-8.43a.5.5 0 1 0-.995-.108l.994.109Zm-10.918 9.757a.5.5 0 0 0-1 .005l1-.005Zm-.99 1.937a.5.5 0 0 0 1-.006l-1 .006ZM16.5 24.4a.5.5 0 0 0-1 0h1Zm1.137-3.144a14.061 14.061 0 0 1-.93-.626l-.59.807c.337.247.67.47.996.671l.524-.852Zm-.93-.626a1.189 1.189 0 0 0-1.408 0l.59.808a.19.19 0 0 1 .228 0l.59-.808Zm-1.407 0c-.318.23-.63.44-.935.627l.525.851c.326-.2.66-.424.998-.67l-.588-.808Zm10.809-2.749c.919-1.29 1.377-2.743 1.39-4.13l-1-.01c-.011 1.175-.4 2.43-1.205 3.56l.815.58Zm1.39-4.13C27.55 8.63 22.736 5 16 5v1c6.46 0 10.542 3.42 10.5 7.742l1 .01ZM16 5C9.265 5 4.45 8.63 4.5 13.752l1-.01C5.458 9.42 9.54 6 16 6V5ZM4.5 13.752c.014 1.386.472 2.838 1.391 4.129l.815-.58c-.805-1.13-1.194-2.385-1.206-3.56l-1 .01Zm17 6.475a3.211 3.211 0 0 1-2.033-.736c-.533-.443-.794-.963-.794-1.36h-1c0 .794.484 1.571 1.155 2.129a4.212 4.212 0 0 0 2.672.967v-1Zm-2.827-2.096c0-.298.048-.477.105-.586a.471.471 0 0 1 .247-.22c.137-.06.34-.104.636-.119.294-.015.65 0 1.08.032l.075-.997a9.826 9.826 0 0 0-1.205-.034c-.355.018-.695.072-.991.204-.31.137-.562.354-.727.67-.16.302-.22.659-.22 1.05h1Zm2.068-.893c1.62.123 2.258.988 2.319 1.644.032.341-.079.667-.317.91-.238.241-.638.435-1.243.435v1c.826 0 1.5-.27 1.956-.734a2.129 2.129 0 0 0 .6-1.704c-.118-1.27-1.273-2.399-3.24-2.548l-.075.997Zm-2.834 7.159-.01 1.931 1 .006.01-1.932-1-.005Zm-6.648-7.16c.43-.032.785-.046 1.08-.03.296.014.498.057.636.118a.472.472 0 0 1 .247.22c.057.109.104.288.104.586h1c0-.391-.06-.748-.22-1.05a1.468 1.468 0 0 0-.726-.67c-.296-.132-.637-.186-.991-.204-.358-.018-.764 0-1.206.034l.076.997Zm2.067.895c0 .396-.26.916-.793 1.359-.52.432-1.241.736-2.034.736v1a4.212 4.212 0 0 0 2.673-.967c.67-.558 1.154-1.335 1.154-2.129h-1ZM10.5 20.226c-.605 0-1.005-.194-1.242-.435a1.129 1.129 0 0 1-.318-.91c.061-.656.699-1.52 2.32-1.644l-.076-.997c-1.967.15-3.121 1.279-3.24 2.548a2.129 2.129 0 0 0 .6 1.704c.457.464 1.13.734 1.957.734v-1Zm-3.51-5.586c.077.702-.011 1.142-.153 1.462-.147.33-.369.577-.661.887-.283.3-.632.66-.897 1.169-.27.519-.44 1.163-.44 2.04h1c0-.74.142-1.222.327-1.579.19-.366.442-.63.738-.944.286-.304.622-.662.847-1.167.229-.515.325-1.14.233-1.977l-.994.109ZM4.84 20.2c0 .719.221 1.586.967 2.267.74.676 1.922 1.101 3.702 1.103l.002-1c-1.635-.002-2.538-.392-3.03-.841-.485-.444-.641-1.01-.641-1.53h-1Zm4.67 3.37c.558 0 1.052.384 1.189.942l.97-.238A2.23 2.23 0 0 0 9.51 22.57v1Zm1.189.943.345 1.406.971-.239-.345-1.406-.971.239Zm.662 1.757c1.652.595 3.23.74 4.643.73l-.008-1c-1.337.01-2.79-.128-4.297-.67l-.338.94Zm4.635.73c1.414.01 2.992-.135 4.644-.73l-.338-.94c-1.508.542-2.96.68-4.298.67l-.008 1Zm4.96-1.081.346-1.406-.971-.239-.346 1.406.971.239Zm.346-1.407a1.23 1.23 0 0 1 1.19-.942l-.002-1a2.23 2.23 0 0 0-2.16 1.704l.972.238Zm1.19-.942c1.78-.002 2.962-.427 3.702-1.103.745-.681.967-1.548.967-2.267h-1c0 .519-.156 1.085-.642 1.529-.491.449-1.394.84-3.029.841l.001 1Zm4.669-3.37c0-.878-.17-1.522-.44-2.041-.264-.509-.613-.869-.896-1.17-.293-.31-.515-.556-.661-.886-.142-.32-.23-.76-.154-1.462l-.994-.109c-.091.836.005 1.462.234 1.977.224.505.56.863.847 1.167.296.314.547.578.738.945.185.356.326.838.326 1.579h1Zm-14.068 4.202.01 1.932 1-.006-.01-1.931-1 .005Zm2.408-.003v2.1h1v-2.1h-1Z" fill="currentColor"/>
  </symbol>
</svg>
